svg/user/user_visible_fill.svg

<?xml version="1.0" encoding="UTF-8"?>
<svg width="24px" height="24px" viewBox="0 0 24 24" version="1.1" xmlns="http://www.w3.org/2000/svg" xmlns:xlink="http://www.w3.org/1999/xlink">
    <title>user_visible_fill</title>
    <g id="Icon" stroke="none" stroke-width="1" fill="none" fill-rule="evenodd">
        <g id="User" transform="translate(-432.000000, -144.000000)" fill-rule="nonzero">
            <g id="user_visible_fill" transform="translate(432.000000, 144.000000)">
                <path d="M24,0 L24,24 L0,24 L0,0 L24,0 Z M12.5935,23.2578 L12.5819,23.2595 L12.5109,23.295 L12.4919,23.2987 L12.4767,23.295 L12.4057,23.2595 C12.3958,23.2564 12.387,23.259 12.3821,23.2649 L12.378,23.2758 L12.3609,23.7031 L12.3659,23.7235 L12.3769,23.7357 L12.4805,23.8097 L12.4953,23.8136 L12.5071,23.8097 L12.6107,23.7357 L12.6233,23.7197 L12.6267,23.7031 L12.6096,23.2758 C12.6076,23.2657 12.601,23.2593 12.5935,23.2578 Z M12.8584,23.1453 L12.8445,23.1473 L12.6598,23.2397 L12.6499,23.2499 L12.6472,23.2611 L12.6651,23.6906 L12.6699,23.7034 L12.6784,23.7105 L12.8793,23.8032 C12.8914,23.8069 12.9022,23.803 12.9078,23.7952 L12.9118,23.7812 L12.8777,23.1665 C12.8753,23.1546 12.8674,23.147 12.8584,23.1453 Z M12.143,23.1473 C12.1332,23.1424 12.1222,23.1453 12.1156,23.1526 L12.1099,23.1665 L12.0758,23.7812 C12.0751,23.7927 12.0828,23.8019 12.0926,23.8046 L12.1083,23.8032 L12.3092,23.7105 L12.3186,23.7024 L12.3225,23.6906 L12.3404,23.2611 L12.3372,23.2485 L12.3278,23.2397 L12.143,23.1473 Z" id="MingCute"></path>
                <path d="M11,2 C8.23858,2 6,4.23858 6,7 C6,9.76142 8.23858,12 11,12 C13.7614,12 16,9.76142 16,7 C16,4.23858 13.7614,2 11,2 Z M11.1227,14.5506 C11.3202,14.2325 11.3234,13.8308 11.1312,13.5096 C10.9389,13.1883 10.5832,13.0014 10.2096,13.0252 C8.00082,13.1658 6.01489,13.8829 4.55889,14.8382 C3.83115,15.3157 3.21061,15.8692 2.76264,16.4673 C2.32067,17.0573 2,17.7557 2,18.5001 C2,20.0345 3.27796,20.8459 4.4954,21.2632 C5.7745,21.7016 7.48466,21.901 9.32712,21.9704 C9.65017,21.9825 9.95917,21.8378 10.1566,21.5818 C10.354,21.3258 10.4155,20.9901 10.3217,20.6808 C10.1127,19.9919 10,19.2601 10,18.5001 C10,17.049 10.4111,15.697 11.1227,14.5506 Z M13.5098,15.2781 C14.368,14.5207 15.594,13.8889 17,13.8889 C18.406,13.8889 19.632,14.5207 20.4902,15.2781 C20.9229,15.66 21.2862,16.0942 21.5474,16.5377 C21.7992,16.9654 22,17.4772 22,18 C22,18.5228 21.7992,19.0346 21.5474,19.4623 C21.2862,19.9058 20.9229,20.34 20.4902,20.7219 C19.632,21.4793 18.406,22.1111 17,22.1111 C15.594,22.1111 14.368,21.4793 13.5098,20.7219 C13.0771,20.34 12.7138,19.9058 12.4526,19.4623 C12.2008,19.0346 12,18.5228 12,18 C12,17.4772 12.2008,16.9654 12.4526,16.5377 C12.7138,16.0942 13.0771,15.66 13.5098,15.2781 Z M17.9963,17.913 C17.8991,17.9684 17.7866,18 17.6667,18 C17.2985,18 17,17.7015 17,17.3333 C17,17.2134 17.0316,17.1009 17.087,17.0037 L17,17 L17,17 C16.4477,17 16,17.4477 16,18 C16,18.5523 16.4477,19 17,19 C17.5523,19 18,18.5523 18,18 L17.9963,17.913 L17.9963,17.913 Z" id="形状" fill="#09244B"></path>
            </g>
        </g>
    </g>
</svg>

<svg xmlns="http://www.w3.org/2000/svg" width="24" height="24"><g fill="none" fill-rule="nonzero"><path d="M24 0v24H0V0h24ZM12.594 23.258l-.012.002-.071.035-.02.004-.014-.004-.071-.036c-.01-.003-.019 0-.024.006l-.004.01-.017.428.005.02.01.013.104.074.015.004.012-.004.104-.074.012-.016.004-.017-.017-.427c-.002-.01-.009-.017-.016-.018Zm.264-.113-.014.002-.184.093-.01.01-.003.011.018.43.005.012.008.008.201.092c.012.004.023 0 .029-.008l.004-.014-.034-.614c-.003-.012-.01-.02-.02-.022Zm-.715.002a.023.023 0 0 0-.027.006l-.006.014-.034.614c0 .012.007.02.017.024l.015-.002.201-.093.01-.008.003-.011.018-.43-.003-.012-.01-.01-.184-.092Z"/><path fill="#09244B" d="M11 2a5 5 0 1 0 0 10 5 5 0 0 0 0-10Zm.123 12.55a1 1 0 0 0-.913-1.525c-2.21.14-4.195.858-5.651 1.813-.728.478-1.348 1.031-1.796 1.63C2.32 17.057 2 17.755 2 18.5c0 1.535 1.278 2.346 2.495 2.763 1.28.439 2.99.638 4.832.707a1 1 0 0 0 .995-1.29A7.498 7.498 0 0 1 10 18.5a7.46 7.46 0 0 1 1.123-3.95Zm2.387.728c.858-.757 2.084-1.39 3.49-1.39 1.406 0 2.632.633 3.49 1.39a5.3 5.3 0 0 1 1.057 1.26c.252.427.453.94.453 1.462 0 .523-.2 1.035-.453 1.462a5.3 5.3 0 0 1-1.057 1.26c-.858.757-2.084 1.39-3.49 1.39-1.406 0-2.632-.633-3.49-1.39a5.3 5.3 0 0 1-1.057-1.26C12.2 19.035 12 18.522 12 18c0-.523.2-1.035.453-1.462a5.3 5.3 0 0 1 1.057-1.26Zm4.486 2.635a.667.667 0 0 1-.91-.91L17.001 17a1 1 0 1 0 1 1l-.004-.087Z"/></g></svg>
